X: 011
M: C|
L: 1/16
Q: "Slow"
K: D
[|\
"^8va"d2 |\
(BA)(GF) (d2F2) (e2F2) d4 | (BA)(GF) Dd(cd) B3AG3F | E3ee3B (ed)(cd) e4 | E3ee3d (d2c2B2d2) |
(BA)(GF) (d2F2) (e2F2) d4 | (BA)(GF) d3c B3AG3F | (GA)(Bc) d3c B3AG3F | E3F (GF)(ED) E2B2B2d2 |]


